www/assets/icons/1x_mobiledata.svg

<svg xmlns="http://www.w3.org/2000/svg" width="24" height="24" viewBox="0 0 24 24" fill='currentColor'><path d="M4.5 7h4v10h-2V9h-2zm11.83 4.72L19.16 7h-2.33l-1.66 2.77L13.5 7h-2.33L14 11.72 10.83 17h2.33l2-3.34 2 3.34h2.34z"/></svg>

<svg width="24" height="24" viewBox="0 0 24 24" xmlns="http://www.w3.org/2000/svg" fill='currentColor'><path d="M4.5 7H8.5V17H6.5V9H4.5V7ZM16.33 11.72L19.16 7H16.83L15.17 9.77L13.5 7H11.17L14 11.72L10.83 17H13.16L15.16 13.66L17.16 17H19.5L16.33 11.72Z"/></svg>
